src/img/icons/show.svg

<svg width="32" height="32" viewBox="0 0 32 32" fill="none" xmlns="http://www.w3.org/2000/svg">
<path d="M16.0058 21.0024C17.5065 21.0024 18.7834 20.4739 19.8365 19.417C20.8897 18.36 21.4162 17.0811 21.4162 15.5804C21.4162 14.0797 20.8877 12.8028 19.8307 11.7497C18.7737 10.6966 17.4949 10.17 15.9942 10.17C14.4935 10.17 13.2166 10.6985 12.1635 11.7555C11.1103 12.8125 10.5838 14.0913 10.5838 15.592C10.5838 17.0927 11.1123 18.3697 12.1693 19.4228C13.2263 20.4759 14.5051 21.0024 16.0058 21.0024ZM15.9932 19.3488C14.946 19.3488 14.0582 18.9824 13.3299 18.2495C12.6016 17.5164 12.2374 16.6263 12.2374 15.5794C12.2374 14.5322 12.6039 13.6444 13.3367 12.9161C14.0699 12.1878 14.9599 11.8236 16.0068 11.8236C17.054 11.8236 17.9418 12.1901 18.6701 12.923C19.3984 13.6561 19.7626 14.5461 19.7626 15.5931C19.7626 16.6403 19.3962 17.528 18.6633 18.2563C17.9301 18.9847 17.0401 19.3488 15.9932 19.3488ZM16 25.1725C13.1077 25.1725 10.4649 24.3818 8.07151 22.8005C5.67837 21.2193 3.75485 19.1741 2.30094 16.665C2.19618 16.4886 2.11983 16.3112 2.0719 16.133C2.02397 15.9545 2 15.7713 2 15.5835C2 15.3959 2.02397 15.2135 2.0719 15.0364C2.11983 14.8593 2.19618 14.683 2.30094 14.5074C3.75485 11.9984 5.67837 9.95318 8.07151 8.37191C10.4649 6.79064 13.1077 6 16 6C18.8923 6 21.5351 6.79064 23.9285 8.37191C26.3216 9.95318 28.2452 11.9984 29.6991 14.5074C29.8038 14.6839 29.8802 14.8612 29.9281 15.0395C29.976 15.218 30 15.4011 30 15.589C30 15.7766 29.976 15.9589 29.9281 16.1361C29.8802 16.3132 29.8038 16.4895 29.6991 16.665C28.2452 19.1741 26.3216 21.2193 23.9285 22.8005C21.5351 24.3818 18.8923 25.1725 16 25.1725ZM15.9962 23.4517C18.6703 23.4517 21.1245 22.7403 23.3588 21.3174C25.5928 19.8943 27.2975 17.9839 28.4727 15.5862C27.2975 13.1885 25.5941 11.2781 23.3626 9.85503C21.131 8.43216 18.6781 7.72073 16.0038 7.72073C13.3297 7.72073 10.8755 8.43216 8.6412 9.85503C6.40715 11.2781 4.69784 13.1885 3.51325 15.5862C4.69784 17.9839 6.4059 19.8943 8.63744 21.3174C10.869 22.7403 13.3219 23.4517 15.9962 23.4517Z" fill="#131212"/>
</svg>

<svg xmlns="http://www.w3.org/2000/svg" viewBox="0 0 32 32">
  <path fill="currentColor" d="M16.006 21.002c1.5 0 2.777-.528 3.83-1.585 1.054-1.057 1.58-2.336 1.58-3.837 0-1.5-.528-2.777-1.585-3.83s-2.336-1.58-3.837-1.58c-1.5 0-2.777.528-3.83 1.585-1.054 1.057-1.58 2.336-1.58 3.837 0 1.5.528 2.778 1.585 3.83 1.057 1.054 2.336 1.58 3.837 1.58Zm-.013-1.653c-1.047 0-1.935-.367-2.663-1.1-.728-.733-1.093-1.623-1.093-2.67s.367-1.935 1.1-2.663c.733-.728 1.623-1.092 2.67-1.092s1.935.366 2.663 1.099c.728.733 1.093 1.623 1.093 2.67s-.367 1.935-1.1 2.663c-.733.729-1.623 1.093-2.67 1.093ZM16 25.172c-2.892 0-5.535-.79-7.928-2.372A18.164 18.164 0 0 1 2.3 16.666a2.122 2.122 0 0 1-.23-.532 2.11 2.11 0 0 1 0-1.097c.049-.177.125-.353.23-.529a18.166 18.166 0 0 1 5.77-6.135C10.466 6.79 13.109 6 16 6c2.892 0 5.535.79 7.928 2.372a18.166 18.166 0 0 1 5.771 6.135c.105.177.181.354.23.533a2.11 2.11 0 0 1 0 1.096 2.107 2.107 0 0 1-.23.529 18.164 18.164 0 0 1-5.77 6.136c-2.394 1.58-5.037 2.372-7.929 2.372Zm-.004-1.72c2.674 0 5.129-.712 7.363-2.135 2.234-1.423 3.938-3.333 5.114-5.73-1.175-2.399-2.879-4.309-5.11-5.732-2.232-1.423-4.685-2.134-7.36-2.134-2.673 0-5.127.711-7.362 2.134-2.234 1.423-3.943 3.333-5.128 5.731 1.185 2.398 2.893 4.308 5.124 5.731 2.232 1.423 4.685 2.135 7.36 2.135Z"/>
</svg>
